X: 29
T:Brian Borouhme
% Nottingham Music Database
S:Jimmy Galway, via EF
Y:AB
M:6/8
K:Am
P:A
e|"Am"cBA Aed|"Am"cBA A2d|"G"BAG Gdc|"G"BAG G2e|
"Am""F"cBA Aed|"Am""F"cBA A2B|"Dm""E7"cde "E7"e2d|"Am"cAA A2:|
P:B
B|"C"cde efe|"C"efe edc|"G"Bcd ded|"G"ded dcB|
"C"cde efe|"C"efe edc|"E7"e3 e2d|"Am"cAA A2:|


